www/assets/icons/diversity_1.svg

<svg xmlns="http://www.w3.org/2000/svg" width="24" height="24" viewBox="0 0 24 24" fill='currentColor'><path d="M4 16.5a2 2 0 1 0 0-4 2 2 0 0 0 0 4m-2.78 1.58A2.01 2.01 0 0 0 0 19.93v1.57h4.5v-1.61c0-.83.23-1.61.63-2.29-.37-.06-.74-.1-1.13-.1-.99 0-1.93.21-2.78.58M20 16.5a2 2 0 1 0 0-4 2 2 0 0 0 0 4m2.78 1.58A6.95 6.95 0 0 0 20 17.5c-.39 0-.76.04-1.13.1.4.68.63 1.46.63 2.29v1.61H24v-1.57c0-.81-.48-1.53-1.22-1.85m-6.54-.93c-1.17-.52-2.61-.9-4.24-.9s-3.07.39-4.24.9A2.99 2.99 0 0 0 6 19.89v1.61h12v-1.61c0-1.18-.68-2.26-1.76-2.74M9 12.5c0 1.66 1.34 3 3 3s3-1.34 3-3-1.34-3-3-3-3 1.34-3 3"/><path d="M2.48 11.36C2.17 10.6 2 9.86 2 9.1c0-2.58 2.02-4.6 4.6-4.6 2.68 0 3.82 1.74 5.4 3.59 1.57-1.83 2.7-3.59 5.4-3.59 2.58 0 4.6 2.02 4.6 4.6 0 .76-.17 1.5-.48 2.26.65.31 1.18.82 1.53 1.44.6-1.2.95-2.42.95-3.7 0-3.7-2.9-6.6-6.6-6.6-2.09 0-4.09.97-5.4 2.51C10.69 3.47 8.69 2.5 6.6 2.5 2.9 2.5 0 5.4 0 9.1c0 1.28.35 2.5.96 3.7.35-.62.88-1.13 1.52-1.44"/></svg>

<svg width="24" height="24" viewBox="0 0 24 24" xmlns="http://www.w3.org/2000/svg" fill='currentColor'><path d="M4 16.5C5.10457 16.5 6 15.6046 6 14.5C6 13.3954 5.10457 12.5 4 12.5C2.89543 12.5 2 13.3954 2 14.5C2 15.6046 2.89543 16.5 4 16.5Z"/><path d="M1.22 18.08C0.48 18.4 0 19.12 0 19.93V21.5H4.5V19.89C4.5 19.06 4.73 18.28 5.13 17.6C4.76 17.54 4.39 17.5 4 17.5C3.01 17.5 2.07 17.71 1.22 18.08Z"/><path d="M20 16.5C21.1046 16.5 22 15.6046 22 14.5C22 13.3954 21.1046 12.5 20 12.5C18.8954 12.5 18 13.3954 18 14.5C18 15.6046 18.8954 16.5 20 16.5Z"/><path d="M22.78 18.08C21.93 17.71 20.99 17.5 20 17.5C19.61 17.5 19.24 17.54 18.87 17.6C19.27 18.28 19.5 19.06 19.5 19.89V21.5H24V19.93C24 19.12 23.52 18.4 22.78 18.08Z"/><path d="M16.24 17.15C15.07 16.63 13.63 16.25 12 16.25C10.37 16.25 8.93 16.64 7.76 17.15C6.68 17.63 6 18.71 6 19.89V21.5H18V19.89C18 18.71 17.32 17.63 16.24 17.15Z"/><path d="M9 12.5C9 14.16 10.34 15.5 12 15.5C13.66 15.5 15 14.16 15 12.5C15 10.84 13.66 9.5 12 9.5C10.34 9.5 9 10.84 9 12.5Z"/><path d="M2.48 11.36C2.17 10.6 2 9.86 2 9.1C2 6.52 4.02 4.5 6.6 4.5C9.28 4.5 10.42 6.24 12 8.09C13.57 6.26 14.7 4.5 17.4 4.5C19.98 4.5 22 6.52 22 9.1C22 9.86 21.83 10.6 21.52 11.36C22.17 11.67 22.7 12.18 23.05 12.8C23.65 11.6 24 10.38 24 9.1C24 5.4 21.1 2.5 17.4 2.5C15.31 2.5 13.31 3.47 12 5.01C10.69 3.47 8.69 2.5 6.6 2.5C2.9 2.5 0 5.4 0 9.1C0 10.38 0.35 11.6 0.96 12.8C1.31 12.18 1.84 11.67 2.48 11.36Z"/></svg>
